X:0706
T:Bach's March.
M:C
L:1/8
Q:1/2=72
I: :: :|
Z:Jack Campin * www.campin.me.uk * 2009
K:C
  c2  |  g2    g>g  g2(3agf |e2 e>e e2 (3cde|d2  f>a   g>fe>d|c2 c>c   c2
  c'>g|  a2    a>a  a2  c'>a|g2 g>g g2   e>g|f>d`f>f   e>ce>e|d2 d>d   d2:|
  g>e |  d2    d>d  d2``g>d |e2 e>e e2 (3efg|a2  c'>c' c'2a2 |g2 c'>c' c'2
(3agf |(3efg (3abc' g>f`e>d |c>de>e e>f``g>g|g2(3agf   e2 d2 |c2 c>c   c2:|

